src/assets/icons/item-flags/sold.svg

<svg width="24" height="24" viewBox="0 0 24 24" fill="none" xmlns="http://www.w3.org/2000/svg">
<path fill-rule="evenodd" clip-rule="evenodd" d="M13.458 3.70378C12.7813 3.70378 12.0858 3.8197 11.4963 4.06216C11.1298 4.21318 10.8457 4.41645 10.5282 4.64421C9.82039 4.33563 9.08241 4.17318 8.29545 4.17318C5.17211 4.17318 2.65531 6.70386 2.65531 9.82557C2.65531 10.5325 2.79898 11.2419 3.04552 11.9122C2.88715 12.0264 2.74266 12.1587 2.61041 12.3073L2.60143 12.3187C2.32469 12.6305 2.18101 13.0534 2.20713 13.4828C2.23407 13.9122 2.43408 14.3138 2.75898 14.5955L8.95424 19.8021C9.58691 20.3507 10.3143 20.3116 11.2637 19.7401C11.3398 19.7954 11.3763 19.8251 11.4053 19.8485C11.4297 19.8684 11.4488 19.8838 11.4817 19.9066C12.1755 20.5034 13.2458 20.4667 13.8458 19.7621L14.1103 19.4462C14.2874 19.2381 14.3903 18.9964 14.4434 18.7458C15.0507 18.9001 15.6826 18.7376 16.0908 18.2576L16.361 17.9417C16.5381 17.7335 16.6451 17.4927 16.6973 17.2413C17.3063 17.3956 17.9365 17.2331 18.3463 16.7531L18.6173 16.4355C18.7937 16.229 18.8998 15.989 18.9537 15.7376C19.5619 15.891 20.1937 15.7286 20.6027 15.2486L20.8737 14.9326C21.3644 14.3579 21.3586 13.5383 20.9431 12.9163C21.535 12.0281 21.7962 11.0746 21.7962 9.82557C21.7962 7.09489 19.8468 4.93973 17.1275 4.51605L17.1275 4.51604L17.1275 4.51604C17.1221 4.51481 17.1195 4.5142 17.1168 4.51379C17.1142 4.51339 17.1115 4.51318 17.1063 4.51278C16.7397 4.45319 16.3814 4.34625 15.7887 4.13726C15.7309 4.11666 15.6755 4.10625 15.6202 4.09585C15.5637 4.08523 15.5072 4.07462 15.4483 4.05318L15.3283 4.05155V4.04991C14.8132 3.82297 14.1454 3.70378 13.458 3.70378ZM9.0988 9.7921C9.00166 9.7921 8.90615 9.78639 8.81145 9.77577C8.51185 9.74312 8.26858 9.64924 8.08898 9.54311C8.8539 8.87861 9.3984 8.09818 9.73882 7.27285C10.1609 6.24589 10.974 5.42872 11.9936 5.0083C12.9365 4.61972 14.0704 4.64258 15.2239 5.02218C15.3198 5.05545 15.3329 5.06012 15.4313 5.09526L15.4484 5.10137C16.0957 5.32995 16.499 5.44995 16.9423 5.52179L16.9571 5.52356L16.9708 5.52587C19.2027 5.87363 20.7734 7.61082 20.7734 9.82557C20.7734 10.8068 20.5954 11.5277 20.1946 12.1954L16.7749 9.4427L14.7512 7.77246L14.7479 7.76919C13.961 7.1202 13.1528 7.19612 12.5087 7.71041C12.3307 7.85083 12.2042 7.9945 12.1275 8.10226C11.1315 9.26556 10.0654 9.7921 9.0988 9.7921ZM3.69048 9.82557C3.69048 10.3831 3.81293 10.9374 3.99906 11.4721C4.97133 11.2011 6.07911 11.3881 6.84566 12.0705L10.7992 15.5882C11.7119 16.3996 11.9748 17.6601 11.5682 18.7385C11.5798 18.7465 11.5913 18.7548 11.605 18.7645C11.626 18.7796 11.6521 18.7982 11.6907 18.825C11.8971 18.9703 11.9394 19.0012 12.0091 19.052L12.0752 19.1001C12.3944 19.3711 12.823 19.3556 13.0426 19.0976L13.2997 18.7817C13.5022 18.5442 13.4352 18.1662 13.1838 17.8943L13.0189 17.7735C12.5919 17.2992 13.1364 16.6266 13.623 17.0413C13.6401 17.056 13.7013 17.1221 13.7013 17.1221C13.7773 17.1964 14.3381 17.5956 14.3381 17.5956C14.6565 17.8666 15.0916 17.8519 15.312 17.5939L15.583 17.2764C15.7855 17.0404 15.7455 16.6617 15.4932 16.3906L15.3838 16.269C14.9561 15.7947 15.6091 15.122 16.0965 15.5376C16.1055 15.5452 16.1135 15.5544 16.1217 15.5637C16.1283 15.5712 16.1349 15.5788 16.1422 15.5857L16.143 15.5841L16.1724 15.6167C16.2492 15.6902 16.3194 15.7678 16.3806 15.8502L16.5953 16.0919C16.9129 16.3629 17.3488 16.3474 17.5684 16.0902L17.8394 15.7727C18.0427 15.5351 18.0019 15.1571 17.7496 14.8853L17.6402 14.7637C17.2116 14.291 17.8663 13.6175 18.3521 14.033C18.3625 14.0416 18.3711 14.0513 18.3794 14.0608C18.3854 14.0676 18.3913 14.0742 18.3978 14.0804L18.4002 14.0796L18.4296 14.113C18.5064 14.1857 18.5766 14.264 18.6378 14.3465L18.8517 14.5865C19.1701 14.8584 19.6052 14.8437 19.8256 14.5857L20.0958 14.2681C20.3162 14.011 20.2631 13.5783 19.9562 13.3163L16.1283 10.2354L14.0981 8.56023C14.0981 8.55941 14.0973 8.55778 14.0973 8.55778C13.7193 8.24839 13.4417 8.27451 13.147 8.50962C13.0532 8.5839 12.9879 8.65738 12.934 8.73085C11.5944 10.2958 10.0882 10.9456 8.69877 10.7921C8.151 10.7333 7.66037 10.5431 7.3273 10.2754C6.87668 9.91292 6.69219 9.35617 7.18036 8.98228C7.95426 8.39043 8.47509 7.65653 8.79346 6.88264C9.01388 6.34385 9.3396 5.86547 9.71839 5.43607C9.26776 5.29321 8.80489 5.19606 8.32243 5.19606C5.76482 5.19606 3.69048 7.26877 3.69048 9.82557ZM9.81304 19.1727C9.67671 19.1727 9.53956 19.1254 9.42936 19.0283L3.43002 13.8232C3.31165 13.7204 3.23899 13.5734 3.22838 13.4175C3.21777 13.2616 3.27083 13.1065 3.37614 12.9889L3.38675 12.9767C4.05208 12.2289 5.40313 12.1554 6.16641 12.8346L10.1208 16.3523C10.88 17.0282 10.9486 18.1931 10.2726 18.9523L10.2522 18.976C10.1363 19.1058 9.97468 19.1727 9.81304 19.1727Z" fill="#FD6C67"/>
<path fill-rule="evenodd" clip-rule="evenodd" d="M17.1387 4.31065C20.0097 4.75801 22 7.02501 22 9.82589C22 11.07 21.7486 12.0292 21.1845 12.9182C21.5926 13.6244 21.5363 14.4717 21.0294 15.0644L20.7575 15.382C20.3567 15.8505 19.7355 16.0677 19.1012 15.9746C19.0293 16.1983 18.9191 16.3967 18.773 16.5681L18.502 16.8857C18.093 17.364 17.4807 17.5747 16.8456 17.48C16.7737 17.702 16.6635 17.9012 16.5166 18.0743L16.2464 18.3894C15.8456 18.8596 15.2259 19.0759 14.5908 18.9837C14.519 19.2082 14.4104 19.4082 14.2659 19.578L14.0014 19.8931C13.688 20.2613 13.2463 20.4849 12.7565 20.5233C12.7083 20.5274 12.6594 20.529 12.6104 20.529C12.1516 20.529 11.6977 20.3617 11.3483 20.0613C11.328 20.0492 11.3085 20.0331 11.2839 20.0128L11.2773 20.0074C11.2753 20.0058 11.2733 20.0042 11.2712 20.0025C11.2647 19.9973 11.2576 19.9915 11.2495 19.9853C10.2593 20.5454 9.48784 20.5339 8.82007 19.9551L2.62808 14.7517C2.26072 14.4342 2.03378 13.9762 2.00357 13.4954C1.97337 13.0137 2.13582 12.5362 2.4493 12.1835C2.5644 12.0529 2.68196 11.9394 2.80359 11.8406C2.5693 11.1614 2.45093 10.4847 2.45093 9.82589C2.45093 6.59642 5.07222 3.9686 8.29516 3.9686C9.06089 3.9686 9.78418 4.11391 10.5026 4.41106C10.7858 4.20861 11.0642 4.02003 11.4177 3.87309C12.6079 3.38491 14.2659 3.37512 15.3762 3.84778L15.4521 3.84941C15.4733 3.85023 15.4962 3.85431 15.5158 3.86166C15.5567 3.87554 15.5953 3.88292 15.634 3.89034C15.6408 3.89165 15.6477 3.89297 15.6545 3.89431C15.7215 3.90656 15.7884 3.91962 15.8586 3.94493C16.466 4.16044 16.8015 4.25596 17.1387 4.31065ZM20.4473 15.1166L20.7192 14.7991C21.1339 14.3134 21.1559 13.6023 20.7731 13.0292C20.7282 12.9607 20.7282 12.8717 20.7731 12.8031C21.3396 11.9541 21.5919 11.0357 21.5919 9.82589C21.5919 7.23072 19.7437 5.12945 17.0971 4.71719C16.7093 4.65433 16.355 4.55392 15.7215 4.32943C15.6782 4.31381 15.638 4.30622 15.5977 4.2986C15.5916 4.29746 15.5855 4.29631 15.5795 4.29514C15.5248 4.28534 15.4693 4.27391 15.4129 4.25677L15.3248 4.25514C15.288 4.25432 15.2546 4.24371 15.2252 4.22738C14.2202 3.79553 12.6561 3.80533 11.5737 4.25106C11.2243 4.39555 10.9442 4.59637 10.6471 4.81025C10.5883 4.85189 10.5124 4.85923 10.4471 4.83148C9.74585 4.52535 9.04134 4.37677 8.2952 4.37677C5.29757 4.37677 2.85914 6.82173 2.85914 9.82589C2.85914 10.4822 2.98649 11.1598 3.23711 11.8423C3.26895 11.928 3.23956 12.0251 3.16527 12.0782C3.02323 12.1802 2.88771 12.3027 2.76281 12.4423C2.51301 12.7264 2.38729 13.0962 2.41097 13.4701C2.43464 13.8423 2.61016 14.1966 2.89343 14.4423L9.08542 19.6457C9.64299 20.1282 10.2618 20.1037 11.1589 19.5657C11.1916 19.5453 11.2275 19.5363 11.2643 19.5363C11.3067 19.5363 11.3483 19.5486 11.3843 19.5755C11.4529 19.6251 11.491 19.6555 11.5197 19.6784C11.5255 19.683 11.5309 19.6873 11.5361 19.6914C11.5549 19.7078 11.5712 19.7208 11.5981 19.7396C11.9198 20.0147 12.3247 20.1478 12.7247 20.1159C13.1059 20.0866 13.4488 19.9143 13.6904 19.6302L13.9541 19.3151C14.0962 19.1478 14.1933 18.9429 14.2423 18.7037C14.2545 18.6498 14.2872 18.6024 14.3345 18.5731C14.3811 18.5428 14.439 18.5355 14.4929 18.5486C15.0488 18.6882 15.5901 18.5314 15.9362 18.1249L16.2056 17.8098C16.3501 17.6392 16.4489 17.4342 16.497 17.2C16.5093 17.1453 16.5419 17.0979 16.5885 17.0685C16.6358 17.0391 16.6921 17.031 16.7477 17.044C17.3052 17.182 17.8448 17.0261 18.191 16.6204L18.462 16.3036C18.6057 16.1363 18.7036 15.9314 18.7542 15.6954C18.7649 15.6407 18.7983 15.5934 18.8457 15.564C18.893 15.5338 18.9485 15.5273 19.0032 15.5395C19.5624 15.6783 20.1012 15.5224 20.4473 15.1166Z" fill="#FD6C67"/>
<path fill-rule="evenodd" clip-rule="evenodd" d="M14.2405 8.41247L16.2585 10.0778L20.0847 13.1579C20.2872 13.331 20.4121 13.5718 20.4317 13.82C20.4488 14.0387 20.3843 14.2453 20.2513 14.4004L19.9811 14.7179C19.8357 14.8869 19.617 14.9857 19.3786 14.9881C19.3745 14.989 19.3712 14.989 19.3672 14.989C19.1361 14.989 18.9059 14.9008 18.7198 14.7416L18.4855 14.4828C18.4194 14.3938 18.3565 14.3253 18.2888 14.26C18.2871 14.2583 18.279 14.2502 18.27 14.2404C18.2651 14.2363 18.261 14.233 18.2569 14.2289L18.2577 14.2265C18.2528 14.22 18.2479 14.2159 18.2471 14.2142L18.3035 14.1636L18.3786 14.06L18.2177 14.1857C18.0577 14.0502 17.892 14.1122 17.799 14.2077C17.7067 14.3032 17.6488 14.4698 17.7916 14.6273L17.901 14.749C18.2218 15.0935 18.2618 15.5906 17.9949 15.9049L17.7239 16.2225C17.4234 16.5735 16.8593 16.5833 16.4626 16.247L16.2283 15.9857C16.1622 15.8984 16.1001 15.8298 16.0316 15.7645C16.0291 15.762 16.0185 15.7506 16.0087 15.7392L16.0087 15.7392C16.0079 15.7384 16.0071 15.7376 16.0054 15.7367C15.9916 15.7245 15.9793 15.7114 15.9679 15.6976C15.8014 15.5539 15.6356 15.6167 15.5426 15.7122C15.4503 15.8069 15.3932 15.9743 15.5352 16.131L15.6446 16.2543C15.9654 16.5988 16.0071 17.096 15.7377 17.4102L15.4683 17.7262C15.1662 18.078 14.6021 18.0878 14.2062 17.7515C14.0854 17.6658 13.6389 17.3474 13.5588 17.2682C13.5515 17.26 13.505 17.2111 13.4878 17.1947C13.3205 17.0494 13.1964 17.14 13.1523 17.1849C13.0543 17.2853 13.0192 17.469 13.1703 17.6372L13.305 17.7303C13.6674 18.118 13.7189 18.6054 13.4552 18.914L13.2013 19.2258C13.047 19.4079 12.8217 19.4985 12.5866 19.4985C12.3662 19.4985 12.1343 19.4185 11.9425 19.2552L11.8902 19.2176C11.8253 19.1701 11.7848 19.1414 11.6169 19.0223L11.5735 18.9915L11.4853 18.9295C11.4094 18.8756 11.3441 18.7523 11.3776 18.6658C11.771 17.6233 11.4902 16.4755 10.6633 15.7408L6.70969 12.2224C6.02641 11.615 5.00843 11.4019 4.0533 11.6689C3.94962 11.6966 3.84187 11.6403 3.80595 11.5383C3.59125 10.9211 3.48676 10.3619 3.48676 9.82638C3.48676 7.16019 5.65579 4.99197 8.3228 4.99197C8.77342 4.99197 9.25017 5.07279 9.77998 5.24096C9.8461 5.26218 9.89671 5.31443 9.91549 5.38137C9.93345 5.4475 9.91712 5.51852 9.87141 5.57076C9.46977 6.02629 9.17833 6.48099 8.98159 6.96019C8.62321 7.83205 8.0583 8.56758 7.304 9.14473C7.16767 9.25004 7.09746 9.37168 7.09501 9.50964C7.09256 9.70556 7.22726 9.93332 7.45502 10.117C7.7636 10.3635 8.22402 10.5358 8.72036 10.5889C10.109 10.7513 11.549 10.0362 12.7792 8.5986C12.8454 8.50717 12.9245 8.42471 13.0209 8.34879C13.4176 8.03287 13.8005 8.05083 14.2258 8.40022C14.2307 8.40349 14.2356 8.40757 14.2405 8.41247ZM19.9402 14.1359L19.9411 14.1351C20.0031 14.0624 20.0333 13.962 20.0251 13.8518C20.0137 13.7097 19.9402 13.5718 19.8235 13.4722L16.0005 10.3937L13.9687 8.71697L13.967 8.7157C13.9603 8.71051 13.9544 8.70587 13.9491 8.69983C13.6535 8.46064 13.4821 8.50309 13.2748 8.6688C13.2062 8.72268 13.1523 8.77901 13.0976 8.85167C11.7686 10.406 10.2045 11.1701 8.67628 10.9946C8.09667 10.9325 7.57258 10.7342 7.19951 10.4354C6.8697 10.1693 6.68276 9.83047 6.68684 9.50393C6.68929 9.31943 6.75541 9.05004 7.05583 8.82064C7.75217 8.28757 8.273 7.61 8.60362 6.80508C8.78322 6.36915 9.03221 5.95445 9.36038 5.54464C8.98731 5.44586 8.65179 5.40015 8.3228 5.40015C5.88111 5.40015 3.89493 7.38551 3.89493 9.82639C3.89493 10.2648 3.97249 10.7244 4.13249 11.2281C5.16517 10.9995 6.2403 11.2599 6.98154 11.9179L10.9343 15.4363C11.8502 16.2486 12.1849 17.4992 11.8111 18.6601C12.0176 18.8062 12.06 18.8364 12.1302 18.8878L12.1947 18.9352C12.4323 19.1344 12.736 19.1442 12.887 18.9654L13.1409 18.6527C13.2699 18.5017 13.2225 18.2372 13.0339 18.0331L12.8976 17.9376C12.558 17.567 12.6331 17.1343 12.8592 16.9009C13.1041 16.651 13.4715 16.6445 13.7556 16.8862C13.776 16.9041 13.8511 16.9833 13.8511 16.9833C13.8887 17.0184 14.1964 17.2445 14.456 17.429C14.6952 17.6323 15.003 17.6413 15.1581 17.4609L15.4275 17.1449C15.5614 16.9882 15.5254 16.7245 15.3434 16.5302L15.2307 16.4045C14.9368 16.0788 15.0185 15.6665 15.2503 15.4273C15.4822 15.1882 15.8944 15.0975 16.2283 15.3816C16.2348 15.3873 16.2626 15.4151 16.2716 15.4249C16.2783 15.4304 16.2841 15.4363 16.29 15.4424C16.292 15.4445 16.294 15.4465 16.2961 15.4486C16.3981 15.5506 16.4765 15.6371 16.5442 15.7278L16.7475 15.9555C16.9475 16.1237 17.2618 16.1351 17.4128 15.9572L17.6839 15.6404C17.8169 15.4837 17.781 15.2192 17.5998 15.0241L17.4887 14.9C17.194 14.5751 17.274 14.162 17.5067 13.9236C17.7385 13.6836 18.1508 13.593 18.4847 13.8779C18.4912 13.8828 18.5124 13.9049 18.5247 13.9179C18.5345 13.9253 18.5443 13.9342 18.5533 13.9449C18.6561 14.0469 18.7337 14.1326 18.8014 14.2249L19.0047 14.4502C19.0994 14.5294 19.2357 14.5751 19.3737 14.5808C19.4953 14.5792 19.6015 14.5334 19.67 14.4534L19.9402 14.1359Z" fill="#FD6C67"/>
<path fill-rule="evenodd" clip-rule="evenodd" d="M15.5175 4.90961C16.204 5.15125 16.5722 5.25492 16.9755 5.32023C19.3421 5.6884 20.9772 7.53988 20.9772 9.82647C20.9772 10.8371 20.7903 11.5996 20.3698 12.3008C20.3388 12.3506 20.2882 12.3857 20.2302 12.3963C20.2188 12.3988 20.2066 12.3996 20.1943 12.3996C20.1486 12.3996 20.1029 12.3833 20.0662 12.3539L16.6473 9.60116L14.6211 7.92928C13.9664 7.39049 13.2627 7.36845 12.6358 7.86968C12.4496 8.01826 12.3419 8.15296 12.2945 8.22071C11.2072 9.48932 9.96794 10.113 8.78914 9.97831C8.41688 9.93831 8.14585 9.81504 7.98422 9.71871C7.92789 9.68524 7.89115 9.62646 7.88544 9.56116C7.87972 9.49585 7.90585 9.43217 7.95483 9.38891C8.66913 8.76848 9.20547 8.02969 9.54916 7.19538C9.98917 6.12352 10.852 5.25819 11.9157 4.81981C12.8864 4.41898 14.0521 4.42062 15.2881 4.82797L15.5175 4.90961ZM16.9052 9.28523L20.1347 11.8853C20.4375 11.3024 20.569 10.6714 20.569 9.82647C20.569 7.7456 19.0767 6.05984 16.9395 5.72759C16.426 5.64514 15.9991 5.51208 15.3803 5.29411L15.1803 5.22309C14.0202 4.84104 12.9508 4.83369 12.0716 5.19778C11.1067 5.59453 10.3254 6.37904 9.92707 7.34967C9.59645 8.15296 9.10093 8.87053 8.45275 9.48769C8.55806 9.52442 8.68622 9.55626 8.83317 9.5734C9.87482 9.68932 10.9883 9.11788 11.9728 7.96928C12.0643 7.83785 12.2145 7.68356 12.3818 7.54968C12.7598 7.24845 13.168 7.09824 13.5802 7.09824C14.0194 7.09824 14.4627 7.26967 14.8782 7.61254L16.9052 9.28523ZM10.1201 18.8171L10.2728 18.9526L10.1005 18.8391C9.96011 18.9967 9.71929 19.0122 9.56255 18.8742L3.56403 13.6692C3.48648 13.6022 3.43831 13.5059 3.4326 13.4039C3.42525 13.3026 3.46036 13.2006 3.53791 13.1124C3.82037 12.7957 4.26201 12.5998 4.75019 12.5745C4.7861 12.5728 4.82202 12.572 4.85713 12.572C5.30775 12.572 5.73143 12.7206 6.03103 12.9867L9.98542 16.5044C10.312 16.795 10.5063 17.1966 10.5316 17.6334C10.5569 18.0693 10.4099 18.4905 10.1201 18.8171ZM4.72903 12.1671C5.31762 12.1287 5.89886 12.323 6.30213 12.6822L10.2565 16.1999C11.099 16.9493 11.1749 18.244 10.4263 19.0865L10.4075 19.1085C10.2492 19.2848 10.0312 19.3754 9.81161 19.3754C9.62712 19.3754 9.44262 19.311 9.29405 19.182L3.29634 13.9769C3.13716 13.839 3.03838 13.6398 3.02532 13.43C3.01144 13.2218 3.08328 13.0112 3.22287 12.8528C3.58778 12.443 4.13228 12.1981 4.72903 12.1671Z" fill="#FD6C67"/>
</svg>

<svg width="24" height="24" fill="none" xmlns="http://www.w3.org/2000/svg"><path fill-rule="evenodd" clip-rule="evenodd" d="M13.458 3.704c-.677 0-1.372.116-1.962.358-.366.151-.65.354-.968.582a5.513 5.513 0 00-2.233-.47 5.64 5.64 0 00-5.64 5.652c0 .707.144 1.416.39 2.086a2.684 2.684 0 00-.435.395l-.009.012a1.612 1.612 0 00.158 2.276l6.195 5.207c.633.549 1.36.51 2.31-.062.076.055.112.085.141.109.025.02.044.035.077.058.694.596 1.764.56 2.364-.145l.264-.316c.177-.208.28-.45.333-.7.608.154 1.24-.008 1.648-.488l.27-.316c.177-.209.284-.45.336-.7.61.154 1.24-.009 1.65-.489l.27-.317c.177-.207.283-.447.337-.698.608.153 1.24-.01 1.649-.49l.27-.315c.491-.575.486-1.395.07-2.017.592-.888.853-1.841.853-3.09 0-2.731-1.95-4.886-4.668-5.31l-.011-.002-.01-.001c-.367-.06-.726-.167-1.318-.376-.058-.02-.114-.03-.169-.041-.056-.01-.113-.021-.172-.043l-.12-.001V4.05c-.515-.227-1.183-.346-1.87-.346zm-4.36 6.088c-.096 0-.192-.006-.287-.016a1.805 1.805 0 01-.722-.233 6.07 6.07 0 001.65-2.27 4.158 4.158 0 012.255-2.265c.943-.388 2.076-.365 3.23.014l.207.073.017.006c.648.229 1.051.349 1.494.42l.015.003.014.002c2.232.348 3.802 2.085 3.802 4.3 0 .98-.178 1.702-.578 2.37l-3.42-2.753-2.024-1.67-.003-.004c-.787-.649-1.595-.573-2.24-.059-.177.14-.304.285-.38.392-.996 1.164-2.063 1.69-3.03 1.69zm-5.408.034c0 .557.123 1.111.31 1.646.971-.27 2.08-.084 2.846.598l3.953 3.518a2.858 2.858 0 01.77 3.15c.01.009.022.017.036.027l.086.06c.206.145.248.176.318.227l.066.048c.32.271.748.256.968-.002l.257-.316c.202-.238.135-.616-.116-.888l-.165-.12c-.427-.475.117-1.147.604-.733.017.015.078.081.078.081.076.074.637.474.637.474.319.27.754.256.974-.002l.271-.318c.203-.236.162-.614-.09-.885l-.11-.122c-.427-.474.226-1.147.713-.731.01.007.017.016.026.026l.02.022.001-.002.03.033c.076.073.146.15.208.233l.214.242c.318.27.754.255.973-.002l.271-.317c.204-.238.163-.616-.09-.888l-.109-.121c-.428-.473.226-1.146.712-.731.01.009.02.018.027.028a.31.31 0 00.019.02l.002-.001.03.033a1.8 1.8 0 01.208.234l.214.24c.318.271.753.257.974-.001l.27-.318c.22-.257.167-.69-.14-.952l-3.828-3.08-2.03-1.676v-.002c-.379-.31-.656-.283-.951-.048-.094.074-.16.147-.213.22-1.34 1.566-2.846 2.216-4.235 2.062-.548-.059-1.039-.249-1.372-.517-.45-.362-.635-.919-.147-1.293a5.031 5.031 0 001.613-2.1c.22-.538.547-1.017.925-1.446a4.602 4.602 0 00-1.396-.24 4.631 4.631 0 00-4.632 4.63zm6.123 9.347a.578.578 0 01-.384-.145L3.43 13.823a.584.584 0 01-.054-.834l.01-.012c.666-.748 2.017-.822 2.78-.142l3.955 3.517c.759.676.828 1.841.152 2.6l-.02.024a.588.588 0 01-.44.197z" fill="#FD6C67"/><path fill-rule="evenodd" clip-rule="evenodd" d="M17.139 4.31C20.009 4.759 22 7.026 22 9.827c0 1.244-.251 2.203-.816 3.092.409.706.352 1.554-.155 2.146l-.271.318c-.401.469-1.023.686-1.657.593a1.716 1.716 0 01-.328.593l-.271.318c-.409.478-1.021.689-1.656.594a1.74 1.74 0 01-.33.594l-.27.315c-.4.47-1.02.687-1.655.595-.072.224-.18.424-.325.594l-.265.315a1.806 1.806 0 01-1.39.636c-.46 0-.913-.167-1.263-.468-.02-.012-.04-.028-.064-.048l-.007-.006a1.33 1.33 0 01-.006-.005l-.022-.017c-.99.56-1.761.549-2.429-.03l-6.192-5.203a1.813 1.813 0 01-.179-2.568c.115-.131.233-.245.355-.343a6.176 6.176 0 01-.353-2.015c0-3.23 2.621-5.857 5.844-5.857.766 0 1.49.145 2.208.442.283-.202.561-.391.915-.538 1.19-.488 2.848-.498 3.958-.025l.076.001a.21.21 0 01.064.013c.04.014.08.02.118.028l.02.004c.068.013.134.026.205.05.607.216.943.312 1.28.367zm3.308 10.807l.272-.318c.415-.486.437-1.197.054-1.77a.207.207 0 010-.226c.567-.849.819-1.767.819-2.977 0-2.595-1.848-4.697-4.495-5.109-.388-.063-.742-.163-1.376-.388-.043-.015-.083-.023-.123-.03a2.376 2.376 0 01-.185-.042l-.088-.002a.214.214 0 01-.1-.028c-1.005-.431-2.569-.422-3.651.024-.35.145-.63.345-.927.56a.207.207 0 01-.2.02 5.28 5.28 0 00-2.152-.454c-2.997 0-5.436 2.445-5.436 5.449 0 .656.127 1.334.378 2.016a.203.203 0 01-.072.236 2.5 2.5 0 00-.402.364 1.414 1.414 0 00.13 2l6.192 5.204c.558.482 1.177.458 2.074-.08a.196.196 0 01.105-.03c.043 0 .084.013.12.04.069.05.107.08.136.102a.665.665 0 00.078.061c.322.276.727.409 1.127.377.38-.03.724-.202.965-.486l.264-.315c.142-.167.24-.372.288-.611a.207.207 0 01.092-.13.203.203 0 01.159-.025c.556.14 1.097-.018 1.443-.424l.27-.315c.144-.17.243-.376.291-.61a.209.209 0 01.091-.131.208.208 0 01.16-.025c.557.138 1.097-.018 1.443-.424l.271-.316c.144-.168.242-.373.292-.609a.2.2 0 01.092-.131.205.205 0 01.157-.024c.56.138 1.098-.018 1.444-.423z" fill="#FD6C67"/><path fill-rule="evenodd" clip-rule="evenodd" d="M14.24 8.412l2.019 1.666 3.826 3.08a.983.983 0 01.347.662.79.79 0 01-.18.58l-.27.318a.8.8 0 01-.603.27l-.012.001c-.23 0-.461-.088-.647-.247l-.235-.26a1.744 1.744 0 00-.215-.242l-.013-.011v-.002c-.004-.007-.01-.011-.01-.013l.056-.05.076-.104-.161.126c-.16-.136-.326-.074-.419.022-.092.095-.15.262-.007.42l.109.121c.32.345.36.842.094 1.156l-.271.318c-.3.35-.865.36-1.261.024l-.235-.261a1.78 1.78 0 00-.196-.222.649.649 0 01-.023-.025l-.004-.002a.345.345 0 01-.037-.04c-.167-.143-.332-.08-.425.015-.093.095-.15.262-.008.419l.11.123c.32.345.362.842.093 1.156l-.27.316c-.302.352-.866.362-1.262.026-.12-.086-.567-.405-.647-.484a2.425 2.425 0 00-.071-.073c-.168-.146-.292-.055-.336-.01-.098.1-.133.284.018.452l.135.093c.362.388.414.875.15 1.184l-.254.312a.794.794 0 01-.614.273 1 1 0 01-.644-.244l-.053-.037c-.065-.048-.105-.077-.273-.196l-.044-.03-.088-.063c-.076-.053-.14-.177-.107-.263a2.637 2.637 0 00-.715-2.925L6.71 12.222c-.684-.607-1.702-.82-2.657-.553a.206.206 0 01-.247-.13c-.215-.618-.32-1.177-.32-1.713a4.84 4.84 0 014.837-4.834c.45 0 .927.08 1.457.249a.205.205 0 01.135.14.206.206 0 01-.044.19c-.401.455-.693.91-.89 1.39a5.217 5.217 0 01-1.677 2.184c-.136.105-.207.227-.209.365-.002.196.132.423.36.607.309.246.769.419 1.265.472 1.389.162 2.829-.553 4.06-1.99.065-.092.145-.174.24-.25.398-.316.78-.298 1.206.051l.014.012zm5.7 5.724h.001a.387.387 0 00.084-.284.566.566 0 00-.201-.38L16 10.394 13.97 8.717l-.002-.001a.122.122 0 01-.018-.016c-.296-.24-.467-.197-.674-.031a.942.942 0 00-.177.183c-1.33 1.554-2.894 2.318-4.422 2.143-.58-.063-1.103-.26-1.476-.56-.33-.266-.517-.605-.513-.931.002-.185.068-.454.369-.683a4.81 4.81 0 001.548-2.016c.18-.436.428-.85.756-1.26A3.997 3.997 0 008.323 5.4a4.432 4.432 0 00-4.428 4.426c0 .439.077.898.237 1.402 1.033-.229 2.108.032 2.85.69l3.952 3.518a3.035 3.035 0 01.877 3.224c.207.146.249.176.32.228l.064.047c.237.2.541.21.692.03l.254-.312c.129-.151.082-.416-.107-.62l-.136-.095c-.34-.371-.265-.804-.039-1.037.245-.25.613-.256.897-.015.02.018.095.097.095.097.038.035.345.261.605.446.24.203.547.212.702.032l.27-.316c.133-.157.097-.42-.085-.615l-.112-.126c-.294-.325-.213-.738.02-.977a.703.703 0 011.045.022c.102.102.18.188.248.279l.203.228c.2.168.515.18.666.001l.27-.317c.134-.156.098-.42-.083-.616l-.111-.124a.699.699 0 01.018-.976.702.702 0 011.046.02c.103.103.18.189.248.28l.204.226c.094.08.23.125.369.13a.39.39 0 00.296-.127l.27-.317z" fill="#FD6C67"/><path fill-rule="evenodd" clip-rule="evenodd" d="M15.518 4.91c.686.241 1.054.345 1.457.41 2.367.368 4.002 2.22 4.002 4.506 0 1.011-.187 1.774-.607 2.475a.21.21 0 01-.176.099.206.206 0 01-.128-.046L16.647 9.6 14.621 7.93c-.655-.539-1.358-.56-1.985-.06a1.756 1.756 0 00-.341.352c-1.088 1.268-2.327 1.892-3.506 1.757a1.986 1.986 0 01-.805-.26.204.204 0 01-.03-.33A5.84 5.84 0 009.55 7.196a4.383 4.383 0 012.367-2.375c.97-.401 2.136-.4 3.372.008l.23.082zm1.387 4.375l3.23 2.6c.302-.583.434-1.214.434-2.059 0-2.08-1.492-3.766-3.63-4.098-.513-.083-.94-.216-1.559-.434l-.2-.07c-1.16-.383-2.23-.39-3.108-.026A3.966 3.966 0 009.927 7.35a6.193 6.193 0 01-1.474 2.138c.105.036.233.068.38.085 1.042.116 2.155-.455 3.14-1.604.091-.131.241-.285.409-.42.378-.3.786-.45 1.198-.45.44 0 .883.17 1.298.514l2.027 1.672zm-6.785 9.532l.153.136-.172-.114a.383.383 0 01-.538.035L3.564 13.67a.38.38 0 01-.131-.265.395.395 0 01.105-.292c.282-.316.724-.512 1.212-.537a2.27 2.27 0 01.107-.003c.45 0 .874.149 1.174.415l3.954 3.517c.327.291.521.693.547 1.13.025.435-.122.857-.412 1.183zm-5.391-6.65c.589-.038 1.17.156 1.573.515l3.955 3.518c.842.75.918 2.044.17 2.887l-.02.021a.799.799 0 01-1.113.074l-5.998-5.205a.793.793 0 01-.073-1.124c.365-.41.91-.655 1.506-.686z" fill="#FD6C67"/></svg>
